assets/Green apple/Flat/green_apple_flat.svg

<svg width="32" height="32" viewBox="0 0 32 32" fill="none" xmlns="http://www.w3.org/2000/svg">
<path d="M10.2502 2H4.22021C4.22021 5.27 6.87021 7.91998 10.1402 7.91998H16.1702C16.1802 4.65998 13.5202 2 10.2502 2Z" fill="#00D26A"/>
<path d="M18.09 7.38001C16.75 7.95001 15.23 7.95001 13.89 7.38001C9.69 5.61001 4.85 7.64002 3.17 11.89C1.61 15.84 1.61 20.23 3.17 24.18C4.91 28.57 9.68 30.94 14.23 29.67C15.38 29.35 16.6 29.35 17.75 29.67C22.3 30.95 27.08 28.58 28.81 24.18C30.37 20.23 30.37 15.84 28.81 11.89C27.14 7.64002 22.3 5.61001 18.09 7.38001Z" fill="#86D72F"/>
</svg>

<svg xmlns="http://www.w3.org/2000/svg" width="32" height="32" fill="none"><path fill="#00D26A" d="M10.25 2H4.22a5.92 5.92 0 0 0 5.92 5.92h6.03C16.18 4.66 13.52 2 10.25 2Z"/><path fill="#86D72F" d="M18.09 7.38c-1.34.57-2.86.57-4.2 0-4.2-1.77-9.04.26-10.72 4.51a16.722 16.722 0 0 0 0 12.29 9.227 9.227 0 0 0 11.06 5.49c1.15-.32 2.37-.32 3.52 0a9.203 9.203 0 0 0 11.06-5.49c1.56-3.95 1.56-8.34 0-12.29-1.67-4.25-6.51-6.28-10.72-4.51Z"/></svg>
